lib/healthicons/icons/solid/symbols/communication.svg

<svg fill="none" height="48" viewBox="0 0 48 48" width="48" xmlns="http://www.w3.org/2000/svg"><path clip-rule="evenodd" d="m18.5 6c-8.0081 0-14.5 6.4919-14.5 14.5 0 18 24 21.5 24 21.5v-7h1.5c8.0081 0 14.5-6.4919 14.5-14.5s-6.4919-14.5-14.5-14.5zm5.5 17.5c1.3807 0 2.5-1.1193 2.5-2.5s-1.1193-2.5-2.5-2.5-2.5 1.1193-2.5 2.5 1.1193 2.5 2.5 2.5zm10.5-2.5c0 1.3807-1.1193 2.5-2.5 2.5s-2.5-1.1193-2.5-2.5 1.1193-2.5 2.5-2.5 2.5 1.1193 2.5 2.5zm-18.5 2.5c1.3807 0 2.5-1.1193 2.5-2.5s-1.1193-2.5-2.5-2.5-2.5 1.1193-2.5 2.5 1.1193 2.5 2.5 2.5z" fill="#333" fill-rule="evenodd"/></svg>

<svg width="48" height="48" viewBox="0 0 48 48" fill="none" xmlns="http://www.w3.org/2000/svg">
<path fill-rule="evenodd" clip-rule="evenodd" d="M18.5 6C10.4919 6 4 12.4919 4 20.5C4 38.5 28 42 28 42V35H29.5C37.5081 35 44 28.5081 44 20.5C44 12.4919 37.5081 6 29.5 6H18.5ZM24 23.5C25.3807 23.5 26.5 22.3807 26.5 21C26.5 19.6193 25.3807 18.5 24 18.5C22.6193 18.5 21.5 19.6193 21.5 21C21.5 22.3807 22.6193 23.5 24 23.5ZM34.5 21C34.5 22.3807 33.3807 23.5 32 23.5C30.6193 23.5 29.5 22.3807 29.5 21C29.5 19.6193 30.6193 18.5 32 18.5C33.3807 18.5 34.5 19.6193 34.5 21ZM16 23.5C17.3807 23.5 18.5 22.3807 18.5 21C18.5 19.6193 17.3807 18.5 16 18.5C14.6193 18.5 13.5 19.6193 13.5 21C13.5 22.3807 14.6193 23.5 16 23.5Z" fill="#333333"/>
</svg>
